X:0891
T:The happy Milk Maid.
M:2/4
L:1/8
Q:1/4=120
I: :: || DC
P:ABA % Aird uses a da capo
Z:Jack Campin * www.campin.me.uk * 2009
K:D
P:A
A|d(c/d/) AA|fe/f/ d(e/f/)|gfed| ce`````cA|d(c/d/) AA|f(e/f/) d(e/f/)|gedc|d3 :|
P:B
a|a^g````=gf|ee````ef     |ggfe|d(d/e/) dA|Bc``````de|fg``````aa     |bagf|f2e||
<end>
<start>
